-----BEGIN PGP SIGNATURE-----

iQIzBAABCgAdFiEEorzDta7/HGHDOngvLEYJDnlOWasFAminXHQACgkQLEYJDnlO
WatMqA//ZwmVXIgXU6+dsJ7v67NAC80Dk6OcDwXOQ5qqIgDeS1KppkiYfQf2+Mra
Ojad06AR2k3wTbnivlhfEMlBqmCpWOkWPUlRp+4OScahZP9/hhoGT7wD0OR2u1Vq
CEokHh21u6qZpjwQqiceJGcci+bntT9BRZBVE5FODDVtdHKuF/YjU0w9G0WTGYZ+
AVVE3hrVXSYxLLuyDVyS7TEYSunCIoqZq1HY0Fs3ydCQFE7WG8z85mIK+Y5IeKQb
I55uhuHparXMd3AwfdtU1z0o9F0KoUh9x/mS0j3HRv6VBNYDKcbp6/lBKpOA2va6
lYkyyjpSt4gPhezREekTdQPviiCwNRcVCPs0kaG7BV2gFbSZYoiqaPhE2c9G8w3L
SUBZduIpzSQG9/ASkUbMm4cQRn0duN9AwGmV/b2xMLvxDmI+M5zMxi4gKW6CLHtw
pI34gRvHN78rBLkCXdmvvgOVOjEx6gDX8nl8SsKkhVqPS2W1g0wtp4mHIuLwKK71
EQsUc4GyeKCTJ+bNUXnjHrnMt7xukC/AuR4vsG4N3UNJzsVmKBJGxN1Vv66M26WU
q2plityzEboEEKEXsKak3lD39o7Ufe040kYmAEmL6utXPMsCa6g64v/G3rZPu3fm
6Hunt+Dy1NQnkoF7ZWooBZ7Q4AXEEDYG4Xd6nGYBCwLr+EZ4pfc=
=LDA3
-----END PGP SIGNATURE-----
