-----BEGIN PGP SIGNATURE-----

iQIzBAABCgAdFiEEorzDta7/HGHDOngvLEYJDnlOWasFAmioQa8ACgkQLEYJDnlO
WatT7BAAw6vJGCC1rRqijOZVwhlXgQP+vi6AU8Ov4vZQIn7URFDoUxkIhaJiPk/s
9ey0jH42GQX/WQJXAsppnnCMM9sgeJXX2ywOzsPWk/mFnDf8DAVJYfQQcIKLOfW4
NfxC8Ze1hCeU05k54QRfVuxWZ1lsOySTqvCA9qukcPxcGMfB8Tdc6yQbeeGzRYkq
L0r37HJLzkzJGPLNKLFxtuBXcG1EP4DFtS1EqAOx6BElIUxikwD3JtC1Alcnz+H3
/cwvnKt7slHzVv4mP0BKOVLwbCL4Sdttmy3F6yMGUI9IyjV9oepI8odTzPp+Mo93
WHobkmUQQhGzQ5cBh2QrfbZyqALO33ZsA6uaQMnKBhFgcdGzerJDGnq2qcnbfPJr
7JzZ6Z9pITM4BX3AcEIhRUaroCtGMqcmTjBYUfcE+P7GcmvtZdYs1jSv9klK8NDW
UYQJRFUq5IAQXpmif3jRuuHCQQg2v3kVlKQ2NnFADs5DXfvRzX0aZTEDiYu/+k6q
9TUiVbC/mQY4V+wdKmiFKlIZ+xXYgMczSkJqkd23ARAOeDSKrXNu2kh1xhQyUh+o
Sr5u1RC3rSdRPR2LSrDoxQFiq8CmNrObXaM6JCay7SA5yN70bVpqKnPqyGWpd6s9
lDI3R6OQaf1oB6K3/yUEdis00wo+t5zqTlzhi0ptYoWFAgP+vfE=
=Ejtf
-----END PGP SIGNATURE-----
