-----BEGIN PGP SIGNATURE-----

iQIzBAABCgAdFiEEorzDta7/HGHDOngvLEYJDnlOWasFAmqenA4ACgkQLEYJDnlO
WasRbA/9FyxUOkbu81Ywoz7H5MPg2QbKiZBunhg5/7bZmvO/sL7n4e5Ty8JO88Gj
h53Y1K59wd/sXDrTYwRN4efBt6TiBrU2BPWMLd8h8hsg+Sk7n4rGXWOQMOpWUCYr
bVqJgblXWIb/762xpM3S+1TfFBQVNbhFRbSe9jzmhNo30hocMvapnBL/PPJHDMMg
18fezkTezhnsvFb4lRwCBYkZMuzTQO8ikdhLHHcpWNUxe9cFDobpLGlAZ7fn0UWQ
94FVUDgxZ/9dIKFjIjxGLvrZb6HLDx3W2Y2slHWD+udGRThkg7QKviUJWAfzxw2O
XNgtJZZNOm7AptTXjdjn7I6eCmc8NCjoZdkuTiEI/EHH/PCLqMBFigGESDNtC7cw
XFH087vK938zz4v+04KzCbQTwbQ0xfrNv2osy3aGwwtsCNSrAu+4YxYduFuUnlCJ
2mrlBV8ldWh7bBfFrXJoeMwygw1W6+Zj3fo+7gGlX2qdkGqR8d9gqGkBCqUDW/Po
IWqzq15aKPmOihSOJhsoIE9bTi2lulJVtlqsz6JIWZmxuJGxIQx+EHz+BIY2OyyD
dWf0woIUwTZvCsvqr3nqL0MiDP4M9lC8MD6Nq0HQahtKsY4Ato5ed7azDLtmznc2
uXyG72XtwptXhfhcqUbclTZ3LuJoqveCpV7O2RC1i/dRlM8JO/s=
=QAdG
-----END PGP SIGNATURE-----
