-----BEGIN PGP SIGNATURE-----

iQIzBAABCgAdFiEEorzDta7/HGHDOngvLEYJDnlOWasFAmq+I00ACgkQLEYJDnlO
WavfFBAAo+BCDMrlcuIDWhYUG1W/MBmDtUerL4vIkv9qBwzf0ze2n9zoh8fu7AFc
QmV+TKXjs87+lGgWYyE0Zs2W5kt5HwWIzreSq5MvITwpic4DQNUURq/I1A2s5AKI
iaUfYiLGq6mRJznu2rVASoULn902CRMhvkMGHt27ZatGExGXFsXVFE77exaa9/dJ
PTjq44dTQc1wNtOffFgCe0jE70avTMme+Kj5H0AXVKet+lhM+SYb8lkGxRpOrDPp
K7rtgz3loccPXxOwjybuWDZFjvScAVOcf5x0c6nv0IMGipMspAtFq/1zRXfE7q61
8Q07MssdbmBFC5iSELzSdwfuMmoBlK0JW7HKNeXzfprjmYYIUSZ8n059Jog3M8AC
AYzuUKLRZYpbbjgwKY56mU3s+V/DYWm+HmWgfAl8AxPMOxrmDcXY+P4DNd+y7+e1
bc7zOf/xI2LGMGhGel+xnX+nEVtihWQVT+eDk/NYdjz1aAf+UkXEIHGMyXcbAfXG
hQ1NcM4I5/JPEfqujw49qpseO81TAqpOJ8i3jtrKwcKkTGUU9/21DWIJYdBavumd
8xKSiSRLlL+I6n481HKir5aviSdZU8FkgHDacKr0Q3lhYfJG+i6sx9ixTpcBtf1t
o2kaMPcSl+B56QeMwaBRWZBnu/N43wx0FyIJ2ks/Lwgmcx4Txzg=
=lJOx
-----END PGP SIGNATURE-----
