-----BEGIN PGP SIGNATURE-----

iQIzBAABCgAdFiEEorzDta7/HGHDOngvLEYJDnlOWasFAmqf3S8ACgkQLEYJDnlO
Wau9pw/+JgbwIGFrkm5jWktC+I05+POMKcnGQyOSgB32qgHh6NWf7Oet8UgJs+EV
3n6SuHpe8V8ug1KXQsfCJfH0x2g1gO/+LZDUjJHboxgS/nCHHXEZ9EpLJ97DdzDO
NbmVc+Bwnq+I7FmDRB2xntGUbZvuRb5t1J3SMjQlkLybM5acbWXy2lhIRhOB/j24
jS+yalYDKwjKUS+XEZbjmnkhDrQtxVP9iDvFc2OeSKfnG6jKH8VP5OQcpK/iWXpM
bEJ7vqI2n3vOLK2TGX5XDr8us2l1wST4vQ1NeYvn22BNhJTPB4PaJFyG3J6qEmgA
VThCg+LHoGR/E5rIoOwnL//rTI5EYMWH5sGvghCgKWxpjRFHhOTr4R9MIQQOPb6n
VsVBHH657KI7LK01QviqOFAPP3IicbaM+mBvUG7vdmBLZ1mv00R5kIMxDHS4bZBl
e25sexC7IQw6YzkkGpaLyXOnHn93eC/MEHr9yqct7H41CPIpO12IOmF+9Ylj8l9B
NR96HV0AxaALp1HEXDAP+VHI1OofBtI2Xp+LC+grQJREKyhyZrnqA2iS9u7+B8++
zCf3Aev8pcHt+5y/lP65Ymh5MRxY6SLQ65q+aanGvuoAGZh2560qjWWC0CFmZTfC
tVBXiWhck9y8NmeF/d7JZjqkG9QAfS+g3yHnNHC4zNU90Qt703Y=
=QunL
-----END PGP SIGNATURE-----
