-----BEGIN PGP SIGNATURE-----

iQIzBAABCgAdFiEEorzDta7/HGHDOngvLEYJDnlOWasFAmq/kacACgkQLEYJDnlO
WavR+hAAlgr/gcX1FWY4xtDigJ0Y9aEORvq3WOOL0Xo+0b7sCSRT2upWxqK/cAhn
NZSu4uyCg1GM5qbVY25Wq7GsgYY4DJs11rAQQdlBlvMHADKbyBSfKjvcS66wIWRn
npzHRvha+aB6PetuoJ6Y/CZp/fArdKVejgwMOYz3inXAAImysROLf7lVVwDocIuX
KLfGKCVbKQACstdxnAZWQBYJNHg/G7PDWTY238u6AIeXEwK0VCg6tcR7a65nLcZ3
zLo3qvnYvj5kk25NqM0oKvFFBJFBMEt8E3r49kbNiK8jLnp/E6RhSiN/cxg1bIpL
MFNeSYTFbrp5H6h7aqUy+GbYWOiDIxyybokg4s3IUSejYf+UDgrywy7/fhJd3/6x
ChiAnm0bVlYI77KApRxpmjzsTPBNK3SKCyCaybUfow/nz6fW+DOnLrTWkgNKSN2G
4ehzhrJ9FIy7jxgwPoJdS6vbTeZMX4SFezFUi+l/s8NFPfar1KLAM43B/dwEDLHd
koEP3D5KWqtnkiyFUr75SpcFXnCl1xq8wQPZY/7XxnzSgoiTThfTPZQYOfp32Dqa
41piXXsw5cF/0wbA46oLMFsTZOURRl5esLtyo6d2vbbodVF2XKBQW+RnW5BYI4JN
9gVl6LMq2yV4tNIe9y7SxxMWC3v/sd6BNtL2SZXUA/rI5Y+34Lw=
=FT40
-----END PGP SIGNATURE-----
